modules/framework7-icons/icons/close_round_fill.svg

<?xml version="1.0" encoding="UTF-8"?>
<svg width="44px" height="44px" viewBox="0 0 44 44" version="1.1" xmlns="http://www.w3.org/2000/svg" xmlns:xlink="http://www.w3.org/1999/xlink">
    <!-- Generator: Sketch 40.1 (33804) - http://www.bohemiancoding.com/sketch -->
    <title>close_round_fill</title>
    <desc>Created with Sketch.</desc>
    <defs></defs>
    <g id="Page-1" stroke="none" stroke-width="1" fill="none" fill-rule="evenodd">
        <g id="close_round_fill" fill="#000000">
            <path d="M22,44 C34.1502645,44 44,34.1502645 44,22 C44,9.8497355 34.1502645,0 22,0 C9.8497355,0 0,9.8497355 0,22 C0,34.1502645 9.8497355,44 22,44 Z M14.9289322,13.5147186 L13.5147186,14.9289322 L20.5857864,22 L13.5147186,29.0710678 L14.9289322,30.4852814 L22,23.4142136 L29.0710678,30.4852814 L30.4852814,29.0710678 L23.4142136,22 L30.4852814,14.9289322 L29.0710678,13.5147186 L22,20.5857864 L14.9289322,13.5147186 Z" id="Combined-Shape"></path>
        </g>
    </g>
</svg>

<svg width="44" height="44" xmlns="http://www.w3.org/2000/svg"><path d="M22 44c12.15 0 22-9.85 22-22S34.15 0 22 0 0 9.85 0 22s9.85 22 22 22zm-7.071-30.485l-1.414 1.414L20.585 22l-7.07 7.071 1.414 1.414L22 23.415l7.071 7.07 1.414-1.414L23.415 22l7.07-7.071-1.414-1.414L22 20.585l-7.071-7.07z" fill-rule="evenodd"/></svg>
